X: 5
T:Irish Hop Pickers (#185), The
M:9/8
L:1/8
S:Wilson's Companion to the Ballroom 1816
K:G
G2 A B2 c dBG|A2 B c2 d ecA|G2 A B2 c dBG|d2 g agf g3:|
|:d2 g gag fed|efe gfe d2 B|cdc edc BdG|E2 E FED G3:||

